Papirus-GTK/24x24/apps/baka-mplayer.svg

<svg height="24" viewBox="0 0 24 24" width="24" xmlns="http://www.w3.org/2000/svg"><path d="m2.8000431 2.1579928c-.7999963.8159962-.7999963 4.7215779-.7999963 7.1939663 0 8.9759579 5.1999757 12.6479409 9.9999532 12.6479409 4.799978 0 9.999953-3.672033 9.999953-12.6479409 0-2.4480385 0-6.3779701-.799996-7.1939663-.799996-.8161462-6.099972 1.7165419-7.699964 3.3484843h-2.999986c-1.5999925-1.6319424-6.8999677-4.1646305-7.6999639-3.3485843z" fill="#4d4d4d" fill-rule="evenodd"/><path d="m7.5 7.5a3.4999836 3.9999813 0 0 0 -3.5 4 3.4999836 3.9999813 0 0 0  3.5 4 3.4999836 3.9999813 0 0 0  3.5-4 3.4999836 3.9999813 0 0 0 -3.5-4zm9 0a3.4999836 3.9999813 0 0 0 -3.5 4 3.4999836 3.9999813 0 0 0  3.5 4 3.4999836 3.9999813 0 0 0  3.5-4 3.4999836 3.9999813 0 0 0 -3.5-4zm-9 1.5a1.9999906 2.4999883 0 0 1 2 2.5 1.9999906 2.4999883 0 0 1 -2 2.5 1.9999906 2.4999883 0 0 1 -2-2.5 1.9999906 2.4999883 0 0 1  2-2.5zm9 0a1.9999906 2.4999883 0 0 1 2 2.5 1.9999906 2.4999883 0 0 1 -2 2.5 1.9999906 2.4999883 0 0 1 -2-2.5 1.9999906 2.4999883 0 0 1  2-2.5zm-4.5 7.5c-.999996 0-2 .293059-2 .878906 0 1.171494.895005 2.121094 2 2.121094 1.104995 0 2-.9496 2-2.121094 0-.585847-1.000004-.878906-2-.878906z" opacity=".2"/><path d="m13.999991 16.879024c0 1.171494-.894996 2.12099-1.999991 2.12099-1.104995 0-1.999991-.949496-1.999991-2.12099 0-1.171695 3.999982-1.171695 3.999982 0z" fill="#fff"/><path d="m7.4999836 7.0000378a3.4999836 3.9999813 0 0 0 -3.4999836 3.9999812 3.4999836 3.9999813 0 0 0  3.4999836 3.999981 3.4999836 3.9999813 0 0 0  3.4999834-3.999981 3.4999836 3.9999813 0 0 0 -3.4999834-3.9999812zm0 1.4999929a1.9999906 2.4999883 0 0 1 1.9999903 2.4999883 1.9999906 2.4999883 0 0 1 -1.9999903 2.499988 1.9999906 2.4999883 0 0 1 -1.9999906-2.499988 1.9999906 2.4999883 0 0 1  1.9999906-2.4999883z" fill="#fff" fill-rule="evenodd"/><path d="m16.499983 7.0000378a3.4999836 3.9999813 0 0 0 -3.499983 3.9999812 3.4999836 3.9999813 0 0 0  3.499983 3.999981 3.4999836 3.9999813 0 0 0  3.499984-3.999981 3.4999836 3.9999813 0 0 0 -3.499984-3.9999812zm0 1.4999929a1.9999906 2.4999883 0 0 1 1.999991 2.4999883 1.9999906 2.4999883 0 0 1 -1.999991 2.499988 1.9999906 2.4999883 0 0 1 -1.99999-2.499988 1.9999906 2.4999883 0 0 1  1.99999-2.4999883z" fill="#fff" fill-rule="evenodd"/><path d="m3.2949407 2.0010935c-.2245989.00565-.3950981.0552-.4950976.1571993-.7999963.8159962-.7997963 4.7207779-.7997963 7.1934663 0 .044.0017.0855.00195.1289994.00155-2.4754884.03405-6.0429717.7978463-6.8224681.7999962-.8157962 6.0999714 1.716792 7.6999639 3.3489844h2.999986c1.599992-1.6321924 6.899968-4.1647806 7.699964-3.3487844.763996.7790464.796496 4.3667796.797996 6.8234681.0005-.044.002-.086.002-.1299994 0-2.4479885 0-6.3774702-.799996-7.1934663-.799996-.8157962-6.099972 1.7167919-7.699964 3.3489843h-2.999986c-1.3999934-1.4281933-5.6329736-3.5455834-7.2049663-3.5059836z" fill="#fff" fill-rule="evenodd" opacity=".1"/><path d="m2.0019968 8.9805608c-.00005.1169995-.00195.2594988-.00195.3709983 0 8.9759579 5.1999757 12.6484409 9.9999532 12.6484409 4.799978 0 9.999953-3.672483 9.999953-12.6484409 0-.1109995-.002-.2534988-.002-.3699983-.0505 8.8799582-5.221475 12.5184412-9.997953 12.5184412-4.7764776 0-9.9474534-3.638483-9.9979532-12.5194412z" fill-rule="evenodd" opacity=".3"/></svg>

<?xml version="1.0" encoding="UTF-8" standalone="no"?>
<svg
   xmlns:dc="http://purl.org/dc/elements/1.1/"
   xmlns:cc="http://creativecommons.org/ns#"
   xmlns:rdf="http://www.w3.org/1999/02/22-rdf-syntax-ns#"
   xmlns:svg="http://www.w3.org/2000/svg"
   xmlns="http://www.w3.org/2000/svg"
   xmlns:sodipodi="http://sodipodi.sourceforge.net/DTD/sodipodi-0.dtd"
   xmlns:inkscape="http://www.inkscape.org/namespaces/inkscape"
   id="svg2"
   version="1.1"
   viewBox="0 0 24 24"
   inkscape:version="0.91 r13725"
   sodipodi:docname="baka-mplayer.svg"
   width="24"
   height="24">
  <defs
     id="defs17" />
  <sodipodi:namedview
     pagecolor="#ffffff"
     bordercolor="#666666"
     borderopacity="1"
     objecttolerance="10"
     gridtolerance="10"
     guidetolerance="10"
     inkscape:pageopacity="0"
     inkscape:pageshadow="2"
     inkscape:window-width="1600"
     inkscape:window-height="849"
     id="namedview15"
     showgrid="false"
     inkscape:zoom="6.56"
     inkscape:cx="-21.893293"
     inkscape:cy="15.95171"
     inkscape:window-x="0"
     inkscape:window-y="0"
     inkscape:window-maximized="1"
     inkscape:current-layer="svg2" />
  <metadata
     id="metadata41">
    <rdf:RDF>
      <cc:Work
         rdf:about="">
        <dc:format>image/svg+xml</dc:format>
        <dc:type
           rdf:resource="http://purl.org/dc/dcmitype/StillImage" />
        <dc:title />
      </cc:Work>
    </rdf:RDF>
  </metadata>
  <path
     style="fill:#4d4d4d;fill-rule:evenodd"
     inkscape:connector-curvature="0"
     id="path37"
     d="M 2.8000431,2.1579928 C 2.0000468,2.973989 2.0000468,6.8795707 2.0000468,9.3519591 2.0000468,18.327917 7.2000225,21.9999 12,21.9999 c 4.799978,0 9.999953,-3.672033 9.999953,-12.6479409 0,-2.4480385 0,-6.3779701 -0.799996,-7.1939663 -0.799996,-0.8161462 -6.099972,1.7165419 -7.699964,3.3484843 l -2.999986,0 C 8.9000145,3.8745347 3.6000393,1.3418466 2.8000431,2.1578928 Z" />
  <path
     style="opacity:0.2;fill:#000000;fill-opacity:1"
     d="m 7.5,7.5 a 3.4999836,3.9999813 0 0 0 -3.5,4 3.4999836,3.9999813 0 0 0 3.5,4 3.4999836,3.9999813 0 0 0 3.5,-4 3.4999836,3.9999813 0 0 0 -3.5,-4 z m 9,0 a 3.4999836,3.9999813 0 0 0 -3.5,4 3.4999836,3.9999813 0 0 0 3.5,4 3.4999836,3.9999813 0 0 0 3.5,-4 3.4999836,3.9999813 0 0 0 -3.5,-4 z M 7.5,9 a 1.9999906,2.4999883 0 0 1 2,2.5 1.9999906,2.4999883 0 0 1 -2,2.5 1.9999906,2.4999883 0 0 1 -2,-2.5 1.9999906,2.4999883 0 0 1 2,-2.5 z m 9,0 a 1.9999906,2.4999883 0 0 1 2,2.5 1.9999906,2.4999883 0 0 1 -2,2.5 1.9999906,2.4999883 0 0 1 -2,-2.5 1.9999906,2.4999883 0 0 1 2,-2.5 z M 12,16.5 c -0.999996,0 -2,0.293059 -2,0.878906 C 10,18.5504 10.895005,19.5 12,19.5 c 1.104995,0 2,-0.9496 2,-2.121094 C 14,16.793059 12.999996,16.5 12,16.5 Z"
     id="path4175"
     inkscape:connector-curvature="0" />
  <path
     style="fill:#ffffff"
     d="m 13.999991,16.879024 c 0,1.171494 -0.894996,2.12099 -1.999991,2.12099 -1.104995,0 -1.999991,-0.949496 -1.999991,-2.12099 0,-1.171695 3.999982,-1.171695 3.999982,0 z"
     id="path31"
     inkscape:connector-curvature="0" />
  <path
     d="M 7.4999836,7.0000378 A 3.4999836,3.9999813 0 0 0 4,11.000019 3.4999836,3.9999813 0 0 0 7.4999836,15 3.4999836,3.9999813 0 0 0 10.999967,11.000019 3.4999836,3.9999813 0 0 0 7.4999836,7.0000378 Z m 0,1.4999929 A 1.9999906,2.4999883 0 0 1 9.4999739,11.000019 1.9999906,2.4999883 0 0 1 7.4999836,13.500007 1.9999906,2.4999883 0 0 1 5.499993,11.000019 1.9999906,2.4999883 0 0 1 7.4999836,8.5000307 Z"
     id="path4218"
     inkscape:connector-curvature="0"
     style="fill:#ffffff;fill-rule:evenodd" />
  <path
     d="M 16.499983,7.0000378 A 3.4999836,3.9999813 0 0 0 13,11.000019 3.4999836,3.9999813 0 0 0 16.499983,15 3.4999836,3.9999813 0 0 0 19.999967,11.000019 3.4999836,3.9999813 0 0 0 16.499983,7.0000378 Z m 0,1.4999929 a 1.9999906,2.4999883 0 0 1 1.999991,2.4999883 1.9999906,2.4999883 0 0 1 -1.999991,2.499988 1.9999906,2.4999883 0 0 1 -1.99999,-2.499988 1.9999906,2.4999883 0 0 1 1.99999,-2.4999883 z"
     id="path4221"
     inkscape:connector-curvature="0"
     style="fill:#ffffff;fill-rule:evenodd" />
  <path
     style="opacity:0.1;fill:#ffffff;fill-rule:evenodd"
     inkscape:connector-curvature="0"
     id="path4223"
     d="m 3.2949407,2.0010935 c -0.2245989,0.00565 -0.3950981,0.0552 -0.4950976,0.1571993 -0.7999963,0.8159962 -0.7997963,4.7207779 -0.7997963,7.1934663 0,0.044 0.0017,0.0855 0.00195,0.1289994 0.00155,-2.4754884 0.03405,-6.0429717 0.7978463,-6.8224681 0.7999962,-0.8157962 6.0999714,1.716792 7.6999639,3.3489844 l 2.999986,0 c 1.599992,-1.6321924 6.899968,-4.1647806 7.699964,-3.3487844 0.763996,0.7790464 0.796496,4.3667796 0.797996,6.8234681 5e-4,-0.044 0.002,-0.086 0.002,-0.1299994 0,-2.4479885 0,-6.3774702 -0.799996,-7.1934663 -0.799996,-0.8157962 -6.099972,1.7167919 -7.699964,3.3489843 l -2.999986,0 C 9.0998136,4.0792838 4.8668334,1.9618937 3.2948407,2.0014935 Z" />
  <path
     style="opacity:0.3;fill-rule:evenodd"
     inkscape:connector-curvature="0"
     id="path4228"
     d="m 2.0019968,8.9805608 c -5e-5,0.1169995 -0.00195,0.2594988 -0.00195,0.3709983 C 2.0000468,18.327517 7.2000225,22 12,22 c 4.799978,0 9.999953,-3.672483 9.999953,-12.6484409 0,-0.1109995 -0.002,-0.2534988 -0.002,-0.3699983 C 21.947453,17.861519 16.776478,21.500002 12,21.500002 c -4.7764776,0 -9.9474534,-3.638483 -9.9979532,-12.5194412 z" />
</svg>
